src/svg/it-files.svg

<?xml version="1.0" encoding="utf-8"?>
<!-- Generator: Adobe Illustrator 25.4.1, SVG Export Plug-In . SVG Version: 6.00 Build 0)  -->
<svg version="1.1" id="Livello_1" xmlns="http://www.w3.org/2000/svg" xmlns:xlink="http://www.w3.org/1999/xlink" x="0px" y="0px"
	 viewBox="0 0 24 24" style="enable-background:new 0 0 24 24;" xml:space="preserve">
<g>
	<path d="M15.7,2H7.5C6.7,2,6,2.7,6,3.5V4H5.5C4.7,4,4,4.7,4,5.5v15C4,21.3,4.7,22,5.5,22h11c0.8,0,1.5-0.7,1.5-1.5V20h0.5
		c0.8,0,1.5-0.7,1.5-1.5V6.3L15.7,2z M16,3.7L18.3,6h-1.8C16.2,6,16,5.8,16,5.5V3.7z M17,20.5c0,0.3-0.2,0.5-0.5,0.5h-11
		C5.2,21,5,20.8,5,20.5v-15C5,5.2,5.2,5,5.5,5H6v13.5C6,19.3,6.7,20,7.5,20H17V20.5z M18.5,19h-11C7.2,19,7,18.8,7,18.5v-15
		C7,3.2,7.2,3,7.5,3H15v2.5C15,6.3,15.7,7,16.5,7H19v11.5C19,18.8,18.8,19,18.5,19z M9,9h8v1H9V9z M9,11h8v1H9V11z M9,13h4v1H9V13z"
		/>
</g>
</svg>

<svg xmlns="http://www.w3.org/2000/svg" width="24" height="24"
     viewBox="0 0 24 24">
  <title>Files</title>
  <g>
    <path
      d="M15.7,2H7.5A1.5,1.5,0,0,0,6,3.5V4H5.5A1.5,1.5,0,0,0,4,5.5v15A1.5,1.5,0,0,0,5.5,22h11A1.5,1.5,0,0,0,18,20.5V20h.5A1.5,1.5,0,0,0,20,18.5V6.3ZM16,3.7,18.3,6H16.5a.5.5,0,0,1-.5-.5Zm1,16.8a.5.5,0,0,1-.5.5H5.5a.5.5,0,0,1-.5-.5V5.5A.5.5,0,0,1,5.5,5H6V18.5A1.5,1.5,0,0,0,7.5,20H17ZM18.5,19H7.5a.5.5,0,0,1-.5-.5V3.5A.5.5,0,0,1,7.5,3H15V5.5A1.5,1.5,0,0,0,16.5,7H19V18.5A.5.5,0,0,1,18.5,19ZM9,9h8v1H9Zm0,2h8v1H9Zm0,2h4v1H9Z"
    />
  </g>
  <g>
    <rect width="24" height="24" fill="none"/>
  </g>
</svg>
